modules/coreui-icons-free/icons/indent-decrease.svg

<!-- Generated by IcoMoon.io -->
<svg version="1.1" xmlns="http://www.w3.org/2000/svg" width="24" height="24" viewBox="0 0 24 24">
<title>indent-decrease</title>
<path d="M3.375 3h19.875v1.5h-19.875v-1.5z"></path>
<path d="M9.375 7.125h13.875v1.5h-13.875v-1.5z"></path>
<path d="M9.375 11.25h13.875v1.5h-13.875v-1.5z"></path>
<path d="M9.375 15.375h13.875v1.5h-13.875v-1.5z"></path>
<path d="M3.375 19.5h19.875v1.5h-19.875v-1.5z"></path>
<path d="M7.5 6.793l-7.29 5.207 7.29 5.207zM6 14.293l-3.21-2.293 3.21-2.293z"></path>
</svg>

<svg xmlns="http://www.w3.org/2000/svg" width="24" height="24" viewBox="0 0 24 24"><path d="M3.375 3H23.25v1.5H3.375V3zM9.375 7.125H23.25v1.5H9.375v-1.5zM9.375 11.25H23.25v1.5H9.375v-1.5zM9.375 15.375H23.25v1.5H9.375v-1.5zM3.375 19.5H23.25V21H3.375v-1.5zM7.5 6.793L.21 12l7.29 5.207zm-1.5 7.5L2.79 12 6 9.707z"/></svg>
